X: 6463
T: Cat In The Corner, The
R: slide
M: 12/8
K: Gmajor
A|B2 B A2 G BdB A2 G|BdB d2 B A3 A2 G|
B2 B A2 G BdB A2 G|BdB d2 B G3 G2 A|
B3 A2 G BdB A3|BdB d2 B A3 A2 G|
BcB A2 G B/c/dB A2 G|BdB d2 B G3- G||
B/c/d|e3 edB e2 f g3|BAB d2 B A3 AB/c/d|
ege edB e2 f g3|B^AB d2 B G3 GB/c/d|
e3 edB e2 f g2 d|BAB d2 B A3 AB/c/d|
e2 ^d e2 =d e2 f g3|B^AB d2 B G3- G2||

